source/images/levelone-icon.svg

<svg height="66" viewBox="0 0 83 66" width="83" xmlns="http://www.w3.org/2000/svg"><g fill="none" fill-rule="evenodd"><circle cx="41" cy="35" fill="#44525e" r="25"/><g transform="translate(33.613636 16.818182)"><path d="m5.10263813 7.80581702h-4.32823776l1.43081687 3.29118508h8.77320186l-9.27639587-11.0970021zm8.07953327 20.16133698-1.4324892-3.2929628h-2.01026761l-.04214187-.0984253-2.7790223-6.3769539h-1.61777962l2.82166586 6.4753792h-5.14599074l9.27790088 11.0992647-3.40161827-7.8063019z" fill="#eacc2f"/><path d="m10.2772556 17.5506748-2.54948432-5.8447965h-6.35200942c-.4850281 0-.7526012 0-.9721251.6791029-.26102344.8102435-.3771359 2.5006957-.3771359 5.4787265 0 2.9780414.11611246 4.6681838.3771359 5.4782565.2195239.6787612.487097.6787612.9721251.6787612h5.75981932l-2.82356276-6.4733401h2.3248158l-1.41007759-3.2317144h.70416477l1.40799764 3.2350039zm4.1865758 3.8610696h-5.43830017l1.13764757 2.608981h4.3006526c.107173 0 .3544887-.126655.3544887-1.3031608 0-1.1784817-.2473157-1.3058202-.3544887-1.3058202zm0-7.0960735c.107173 0 .3544887-.128321.3544887-1.3048269 0-1.177969-.2473157-1.3049657-.3544887-1.3049657h-6.03186215l1.13764757 2.6097926zm.5035596 3.8610696h-7.35365221l1.13869861 2.6096217h6.2149536c.1068522 0 .3548317-.1273278.3548317-1.3044851 0-1.177467-.2479795-1.3051366-.3548317-1.3051366zm0-3.2350359h-5.12432632l1.13834462 2.6089702h3.9859817c.1068522 0 .3548317-.1279686.3548317-1.3051259 0-1.1765165-.2479795-1.3038443-.3548317-1.3038443z" fill="#fff"/></g><g transform="translate(50 34)"><ellipse cx="16.176471" cy="16" fill="#44525e" fill-rule="evenodd" rx="16.176471" ry="16"/><ellipse cx="16.176471" cy="16" rx="15.676471" ry="15.5" stroke="#fff"/><path d="m7.48828125 16.5c0-1.3007812.28125-2.5429687.78515625-3.6679687l4.3007812 11.7773437c-3.0117187-1.4648438-5.08593745-4.546875-5.08593745-8.109375zm15.09375005-.4570312c0 .7734374-.3164063 1.6640624-.6914063 2.9179687l-.890625 3-3.2578125-9.6796875s.5390625-.0351562 1.03125-.09375c.4804688-.0585938.421875-.7734375-.0585937-.7382812-1.4648438.1054687-2.4023438.1171874-2.4023438.1171874s-.8789062-.0117187-2.3671875-.1171874c-.4921875-.0351563-.5507812.703125-.0585937.7382812.4570312.046875.9375.09375.9375.09375l1.40625 3.84375-1.96875 5.90625-3.28125-9.75s.5390625-.0351562 1.03125-.09375c.4804687-.0585938.421875-.7734375-.0585938-.7382812-1.453125.1054687-2.40234375.1171874-2.40234375.1171874-.1640625 0-.36328125-.0117187-.57421875-.0117187 1.6054688-2.44921875 4.3710938-4.06640625 7.5234375-4.06640625 2.34375 0 4.4765625.90234375 6.0820313 2.3671875h-.1171875c-.8789063 0-1.5117188.76171875-1.5117188 1.59375005 0 .7382812.4335938 1.359375.890625 2.109375.3515625.5976562.7382813 1.3710937.7382813 2.484375zm-5.9296875 1.2421875 2.7773437 7.5820312c.0117188.046875.0351563.09375.0585938.1289063-.9375.328125-1.9335938.515625-2.9882813.515625-.8789062 0-1.734375-.1289063-2.5429688-.375zm7.7460937-5.109375c.703125 1.2890625 1.1132813 2.7539062 1.1132813 4.3242187 0 3.328125-1.8046875 6.2226562-4.4882813 7.78125l2.7539063-7.9453125c.4570312-1.3125.6914062-2.3203125.6914062-3.234375 0-.328125-.0234375-.6328125-.0703125-.9257812zm-7.8984375-6.1757813c5.7890625 0 10.5 4.7109375 10.5 10.5s-4.7109375 10.5-10.5 10.5-10.5-4.7109375-10.5-10.5 4.7109375-10.5 10.5-10.5zm0 20.5195312c5.5195312 0 10.0195312-4.5 10.0195312-10.0195312 0-5.5195313-4.5-10.01953125-10.0195312-10.01953125-5.5195313 0-10.01953125 4.49999995-10.01953125 10.01953125 0 5.5195312 4.49999995 10.0195312 10.01953125 10.0195312z" fill="#fff"/></g><ellipse cx="16.176471" cy="16" fill="#44525e" fill-rule="evenodd" rx="16.176471" ry="16"/><ellipse cx="16.176471" cy="16" rx="15.676471" ry="15.5" stroke="#fff"/><path d="m20.8675424 23.383846c-.023514-.0814014-.0940563-.1976892-.2821689-.0581439-.3997392.2907195-1.2932741.6512116-2.5630341.6512116-1.2697601 0-1.869369-.2674619-2.2691083-.5698101-.0587852-.0465151-.0352711-.0465151-.1528415-.0465151-.1293274 0-.1998696.0581439-.3056829.1395453-.0940563.0814015-.1410845.2790907 0 .4186361.8700207.7907569 2.3278934.7209842 3.3977838.627954 1.0816475-.104659 1.9986964-.7326131 2.0927527-.8256433.1410844-.1395453.1058133-.2558331.0822992-.3372346zm-.4585244-1.3373096c-.0822993-.1976892-.2233837-.5465526-.4585245-.7093555-.2351407-.1511741-.5760948-.1744317-.8935348-.1744317s-.4937956-.0232575-.8347497.1162878c-.3409541.1395454-.6936652.4535224-.9170489.6512117-.2233837.1976892-.2586549.3488633-.1410845.5116662.1175704.1511742.2468978.0581439.5760949-.2209468.3409541-.2674619.5643378-.5116662 1.258003-.5116662s.8112356.2558331.95232.5116662c.1410845.2558332.1528415.2907195.293926.2209468.1645985-.0814014.2468977-.1976892.1645985-.3953785zm4.1737483-3.2676868c0-.6046965-.2704119-1.6280291-1.26976-1.6280291-.940563 0-2.8452031 1.9303773-3.8445513 1.9420061-1.1639467.0232576-2.7746609-2.2792407-5.1025543-2.2559831-1.8340979.0116288-3.2802135 1.4535973-3.3037276 2.9885962-.011757.8605296.2704119 1.5001125.8700208 1.9071197.3997393.2674619.7642075.4302648 1.9516683.4302648 1.9751823 0 4.4794313-2.418786 5.6316209-2.3838996.917049.0348863 2.3396505 2.2559831 3.0568298 2.3024982.5643378.0465151.8582637-.209318 1.3403023-.895416.4702815-.6977267.6701511-1.790832.6701511-2.4071572zm.623123-1.8606047c0 5.209693-4.1619913 8.6518116-8.9471056 8.6518116-4.7968713 0-9.11170405-3.7328381-9.11170405-8.8146145 0-5.0701476 3.99739275-7.41916093 4.73808615-7.80291064.8817778-.46515116 1.5166578-.70935551 2.516006-1.50011248.4937956-.38374971.9052919-.9419311 1.0346193-2.30249823.7171793.84890086 1.575443 1.83734707 2.186809 2.24435433.9993482.65121162 1.9986964.90704476 3.0450727 1.55825638.63488.38374971 4.5382165 2.74439184 4.5382165 7.96571354z" fill="#fff"/></g></svg>

<?xml version="1.0" encoding="UTF-8"?>
<svg width="83px" height="66px" viewBox="0 0 83 66" version="1.1" xmlns="http://www.w3.org/2000/svg" xmlns:xlink="http://www.w3.org/1999/xlink">
    <!-- Generator: Sketch 44 (41411) - https://www.sketchapp.com -->
    <title>Group 13</title>
    <desc>Created with Sketch.</desc>
    <defs>
        <ellipse id="path-1" cx="16.1764706" cy="16" rx="16.1764706" ry="16"></ellipse>
        <ellipse id="path-2" cx="16.1764706" cy="16" rx="16.1764706" ry="16"></ellipse>
    </defs>
    <g id="Page-1" stroke="none" stroke-width="1" fill="none" fill-rule="evenodd">
        <g id="Artboard-2" transform="translate(-223.000000, -194.000000)">
            <g id="Group-13" transform="translate(223.000000, 194.000000)">
                <g id="Group-4" transform="translate(16.000000, 10.000000)">
                    <circle id="Oval-7" fill="#44525E" cx="25" cy="25" r="25"></circle>
                    <g id="Group-12-Copy" transform="translate(17.613636, 6.818182)">
                        <path d="M5.10263813,7.80581702 L0.774400373,7.80581702 L2.20521724,11.0970021 L10.9784191,11.0970021 L1.70202323,0 L5.10263813,7.80581702 Z M13.1821714,27.967154 L11.7496822,24.6741912 L9.73941459,24.6741912 L9.69727272,24.5757659 L6.91825042,18.198812 L5.3004708,18.198812 L8.12213666,24.6741912 L2.97614592,24.6741912 L12.2540468,35.7734559 L8.85242853,27.967154 L13.1821714,27.967154 L13.1821714,27.967154 Z" id="Fill-1" fill="#EACC2F"></path>
                        <path d="M10.2772556,17.5506748 L7.72777128,11.7058783 L1.37576186,11.7058783 C0.890733757,11.7058783 0.62316066,11.7058783 0.403636764,12.3849812 C0.142613316,13.1952247 0.0265008639,14.8856769 0.0265008639,17.8637077 C0.0265008639,20.8417491 0.142613316,22.5318915 0.403636764,23.3419642 C0.62316066,24.0207254 0.890733757,24.0207254 1.37576186,24.0207254 L7.13558118,24.0207254 L4.31201842,17.5473853 L6.63683422,17.5473853 L5.22675663,14.3156709 L5.9309214,14.3156709 L7.33891904,17.5506748 L10.2772556,17.5506748 Z M14.4638314,21.4117444 L9.02553123,21.4117444 L10.1631788,24.0207254 L14.4638314,24.0207254 C14.5710044,24.0207254 14.8183201,23.8940704 14.8183201,22.7175646 C14.8183201,21.5390829 14.5710044,21.4117444 14.4638314,21.4117444 L14.4638314,21.4117444 Z M14.4638314,14.3156709 C14.5710044,14.3156709 14.8183201,14.1873499 14.8183201,13.010844 C14.8183201,11.832875 14.5710044,11.7058783 14.4638314,11.7058783 L8.43196925,11.7058783 L9.56961682,14.3156709 L14.4638314,14.3156709 L14.4638314,14.3156709 Z M14.967391,18.1767405 L7.61373879,18.1767405 L8.7524374,20.7863622 L14.967391,20.7863622 C15.0742432,20.7863622 15.3222227,20.6590344 15.3222227,19.4818771 C15.3222227,18.3044101 15.0742432,18.1767405 14.967391,18.1767405 L14.967391,18.1767405 Z M14.967391,14.9417046 L9.84306468,14.9417046 L10.9814093,17.5506748 L14.967391,17.5506748 C15.0742432,17.5506748 15.3222227,17.4227062 15.3222227,16.2455489 C15.3222227,15.0690324 15.0742432,14.9417046 14.967391,14.9417046 L14.967391,14.9417046 Z" id="Fill-2" fill="#FFFFFF"></path>
                    </g>
                </g>
                <g id="Group-6" transform="translate(50.000000, 34.000000)">
                    <g id="Oval-8">
                        <use fill="#44525E" fill-rule="evenodd" xlink:href="#path-1"></use>
                        <ellipse stroke="#FFFFFF" stroke-width="1" cx="16.1764706" cy="16" rx="15.6764706" ry="15.5"></ellipse>
                    </g>
                    <path d="M7.48828125,16.5 C7.48828125,15.1992188 7.76953125,13.9570313 8.2734375,12.8320313 L12.5742187,24.609375 C9.5625,23.1445312 7.48828125,20.0625 7.48828125,16.5 Z M22.5820313,16.0429688 C22.5820313,16.8164062 22.265625,17.7070312 21.890625,18.9609375 L21,21.9609375 L17.7421875,12.28125 C17.7421875,12.28125 18.28125,12.2460938 18.7734375,12.1875 C19.2539063,12.1289062 19.1953125,11.4140625 18.7148438,11.4492188 C17.25,11.5546875 16.3125,11.5664062 16.3125,11.5664062 C16.3125,11.5664062 15.4335938,11.5546875 13.9453125,11.4492188 C13.453125,11.4140625 13.3945313,12.1523438 13.8867188,12.1875 C14.34375,12.234375 14.8242188,12.28125 14.8242188,12.28125 L16.2304688,16.125 L14.2617188,22.03125 L10.9804688,12.28125 C10.9804688,12.28125 11.5195313,12.2460938 12.0117188,12.1875 C12.4921875,12.1289062 12.4335938,11.4140625 11.953125,11.4492188 C10.5,11.5546875 9.55078125,11.5664062 9.55078125,11.5664062 C9.38671875,11.5664062 9.1875,11.5546875 8.9765625,11.5546875 C10.5820313,9.10546875 13.3476563,7.48828125 16.5,7.48828125 C18.84375,7.48828125 20.9765625,8.390625 22.5820313,9.85546875 L22.4648438,9.85546875 C21.5859375,9.85546875 20.953125,10.6171875 20.953125,11.4492188 C20.953125,12.1875 21.3867188,12.8085938 21.84375,13.5585938 C22.1953125,14.15625 22.5820313,14.9296875 22.5820313,16.0429688 Z M16.6523438,17.2851563 L19.4296875,24.8671875 C19.4414063,24.9140625 19.4648438,24.9609375 19.4882813,24.9960938 C18.5507813,25.3242188 17.5546875,25.5117188 16.5,25.5117188 C15.6210938,25.5117188 14.765625,25.3828125 13.9570312,25.1367188 L16.6523438,17.2851563 Z M24.3984375,12.1757813 C25.1015625,13.4648438 25.5117188,14.9296875 25.5117188,16.5 C25.5117188,19.828125 23.7070313,22.7226562 21.0234375,24.28125 L23.7773438,16.3359375 C24.234375,15.0234375 24.46875,14.015625 24.46875,13.1015625 C24.46875,12.7734375 24.4453125,12.46875 24.3984375,12.1757813 Z M16.5,6 C22.2890625,6 27,10.7109375 27,16.5 C27,22.2890625 22.2890625,27 16.5,27 C10.7109375,27 6,22.2890625 6,16.5 C6,10.7109375 10.7109375,6 16.5,6 Z M16.5,26.5195312 C22.0195312,26.5195312 26.5195312,22.0195312 26.5195312,16.5 C26.5195312,10.9804687 22.0195312,6.48046875 16.5,6.48046875 C10.9804687,6.48046875 6.48046875,10.9804687 6.48046875,16.5 C6.48046875,22.0195312 10.9804687,26.5195312 16.5,26.5195312 Z" id="" fill="#FFFFFF"></path>
                </g>
                <g id="Group-7">
                    <g id="Oval-8">
                        <use fill="#44525E" fill-rule="evenodd" xlink:href="#path-2"></use>
                        <ellipse stroke="#FFFFFF" stroke-width="1" cx="16.1764706" cy="16" rx="15.6764706" ry="15.5"></ellipse>
                    </g>
                    <path d="M20.8675424,23.383846 C20.8440284,23.3024446 20.7734861,23.1861568 20.5853735,23.3257021 C20.1856343,23.6164216 19.2920994,23.9769137 18.0223394,23.9769137 C16.7525793,23.9769137 16.1529704,23.7094518 15.7532311,23.4071036 C15.6944459,23.3605885 15.71796,23.3605885 15.6003896,23.3605885 C15.4710622,23.3605885 15.40052,23.4187324 15.2947067,23.5001338 C15.2006504,23.5815353 15.1536222,23.7792245 15.2947067,23.9187699 C16.1647274,24.7095268 17.6226001,24.6397541 18.6924905,24.5467239 C19.774138,24.4420649 20.6911869,23.8141108 20.7852432,23.7210806 C20.9263276,23.5815353 20.8910565,23.4652475 20.8675424,23.383846 Z M20.409018,22.0465364 C20.3267187,21.8488472 20.1856343,21.4999838 19.9504935,21.3371809 C19.7153528,21.1860068 19.3743987,21.1627492 19.0569587,21.1627492 C18.7395187,21.1627492 18.5631631,21.1394917 18.222209,21.279037 C17.8812549,21.4185824 17.5285438,21.7325594 17.3051601,21.9302487 C17.0817764,22.1279379 17.0465052,22.279112 17.1640756,22.4419149 C17.281646,22.5930891 17.4109734,22.5000588 17.7401705,22.2209681 C18.0811246,21.9535062 18.3045083,21.7093019 18.9981735,21.7093019 C19.6918387,21.7093019 19.8094091,21.965135 19.9504935,22.2209681 C20.091578,22.4768013 20.103335,22.5116876 20.2444195,22.4419149 C20.409018,22.3605135 20.4913172,22.2442257 20.409018,22.0465364 Z M24.5827663,18.7788496 C24.5827663,18.1741531 24.3123544,17.1508205 23.3130063,17.1508205 C22.3724433,17.1508205 20.4678032,19.0811978 19.468455,19.0928266 C18.3045083,19.1160842 16.6937941,16.8135859 14.3659007,16.8368435 C12.5318028,16.8484723 11.0856872,18.2904408 11.0621731,19.8254397 C11.0504161,20.6859693 11.332585,21.3255522 11.9321939,21.7325594 C12.3319332,22.0000213 12.6964014,22.1628242 13.8838622,22.1628242 C15.8590445,22.1628242 18.3632935,19.7440382 19.5154831,19.7789246 C20.4325321,19.8138109 21.8551336,22.0349077 22.5723129,22.0814228 C23.1366507,22.1279379 23.4305766,21.8721048 23.9126152,21.1860068 C24.3828967,20.4882801 24.5827663,19.3951748 24.5827663,18.7788496 Z M25.2058893,16.9182449 C25.2058893,22.1279379 21.043898,25.5700565 16.2587837,25.5700565 C11.4619124,25.5700565 7.14707965,21.8372184 7.14707965,16.755442 C7.14707965,11.6852944 11.1444724,9.33628107 11.8851658,8.95253136 C12.7669436,8.4873802 13.4018236,8.24317585 14.4011718,7.45241888 C14.8949674,7.06866917 15.3064637,6.51048778 15.4357911,5.14992065 C16.1529704,5.99882151 17.0112341,6.98726772 17.6226001,7.39427498 C18.6219483,8.0454866 19.6212965,8.30131974 20.6676728,8.95253136 C21.3025528,9.33628107 25.2058893,11.6969232 25.2058893,16.9182449 Z" id="" fill="#FFFFFF"></path>
                </g>
            </g>
        </g>
    </g>
</svg>
